Simply-Green-Circles/scalable/apps/quadrapassel.svg

<?xml version="1.0" encoding="UTF-8" standalone="no"?>
<svg
   xmlns:dc="http://purl.org/dc/elements/1.1/"
   xmlns:cc="http://creativecommons.org/ns#"
   xmlns:rdf="http://www.w3.org/1999/02/22-rdf-syntax-ns#"
   xmlns:svg="http://www.w3.org/2000/svg"
   xmlns="http://www.w3.org/2000/svg"
   xmlns:sodipodi="http://sodipodi.sourceforge.net/DTD/sodipodi-0.dtd"
   xmlns:inkscape="http://www.inkscape.org/namespaces/inkscape"
   width="48"
   height="48"
   viewBox="0 0 12.7 12.7"
   version="1.1"
   id="svg4"
   sodipodi:docname="quadrapassel.svg"
   inkscape:version="0.92.4 (5da689c313, 2019-01-14)">
  <metadata
     id="metadata10">
    <rdf:RDF>
      <cc:Work
         rdf:about="">
        <dc:format>image/svg+xml</dc:format>
        <dc:type
           rdf:resource="http://purl.org/dc/dcmitype/StillImage" />
        <dc:title></dc:title>
      </cc:Work>
    </rdf:RDF>
  </metadata>
  <defs
     id="defs8" />
  <sodipodi:namedview
     pagecolor="#ffffff"
     bordercolor="#666666"
     borderopacity="1"
     objecttolerance="10"
     gridtolerance="10"
     guidetolerance="10"
     inkscape:pageopacity="0"
     inkscape:pageshadow="2"
     inkscape:window-width="1087"
     inkscape:window-height="480"
     id="namedview6"
     showgrid="false"
     inkscape:zoom="4.9166667"
     inkscape:cx="2.1355932"
     inkscape:cy="24"
     inkscape:window-x="0"
     inkscape:window-y="25"
     inkscape:window-maximized="0"
     inkscape:current-layer="svg4" />
  <path
     d="m 6.344,0.072 a 6.29,6.29 0 0 0 -6.29,6.29 6.29,6.29 0 0 0 6.29,6.289 6.29,6.29 0 0 0 6.29,-6.29 6.29,6.29 0 0 0 -6.29,-6.29 z M 6.326,1.009 A 5.407,5.407 0 0 1 11.733,6.416 5.407,5.407 0 0 1 6.326,11.823 5.407,5.407 0 0 1 0.92,6.416 5.407,5.407 0 0 1 6.326,1.01 Z M 5.22,3.026 c -0.123,0 -0.222,0.099 -0.222,0.222 v 2.229 c 0,0.123 0.099,0.222 0.222,0.222 H 7.448 C 7.572,5.699 7.671,5.6 7.671,5.477 V 3.248 c 0,-0.123 -0.1,-0.222 -0.223,-0.222 z M 2.34,5.942 c -0.124,0 -0.223,0.1 -0.223,0.223 v 2.228 c 0,0.124 0.099,0.223 0.222,0.223 h 2.229 c 0.123,0 0.222,-0.1 0.222,-0.223 V 6.165 C 4.79,6.042 4.691,5.942 4.568,5.942 H 2.339 Z m 2.896,0 c -0.124,0 -0.223,0.1 -0.223,0.223 v 2.228 c 0,0.124 0.1,0.223 0.223,0.223 h 2.228 c 0.124,0 0.223,-0.1 0.223,-0.223 V 6.165 c 0,-0.123 -0.1,-0.223 -0.223,-0.223 z m 2.896,0 c -0.123,0 -0.222,0.1 -0.222,0.223 v 2.228 c 0,0.124 0.099,0.223 0.222,0.223 h 2.229 c 0.123,0 0.222,-0.1 0.222,-0.223 V 6.165 c 0,-0.123 -0.099,-0.223 -0.222,-0.223 z"
     id="path2"
     inkscape:connector-curvature="0"
     style="fill:#2ca02c" />
</svg>

<svg xmlns="http://www.w3.org/2000/svg" width="48" height="48" viewBox="0 0 12.7 12.7"><path d="M6.34.07a6.29 6.29 0 0 0-6.29 6.3 6.29 6.29 0 0 0 6.3 6.28 6.29 6.29 0 0 0 6.28-6.29A6.29 6.29 0 0 0 6.34.07zm-.01.94a5.4 5.4 0 0 1 5.4 5.4 5.4 5.4 0 0 1-5.4 5.41 5.4 5.4 0 0 1-5.41-5.4A5.4 5.4 0 0 1 6.32 1zM5.22 3.03c-.12 0-.22.1-.22.22v2.23c0 .12.1.22.22.22h2.23c.12 0 .22-.1.22-.22V3.25c0-.12-.1-.22-.22-.22H5.22zM2.34 5.94c-.12 0-.22.1-.22.22V8.4c0 .13.1.23.22.23h2.23c.12 0 .22-.1.22-.23V6.16c0-.12-.1-.22-.22-.22H2.34zm2.9 0c-.13 0-.23.1-.23.22V8.4c0 .13.1.23.23.23h2.22c.13 0 .23-.1.23-.23V6.16c0-.12-.1-.22-.23-.22H5.24zm2.9 0c-.13 0-.23.1-.23.22V8.4c0 .13.1.23.22.23h2.23c.12 0 .22-.1.22-.23V6.16c0-.12-.1-.22-.22-.22H8.13z" fill="#2ca02c"/></svg>
